symbols/web/menu_open/materialsymbolsoutlined/menu_open_wght100_24px.svg

<svg xmlns="http://www.w3.org/2000/svg" height="24" width="24"><path d="M3.775 17.05V16.35H15.475V17.05ZM3.775 12.35V11.65H12.475V12.35ZM3.775 7.65V6.95H15.475V7.65ZM19.725 16.1 15.625 12 19.725 7.9 20.225 8.4 16.625 12 20.225 15.6Z"/></svg>

<svg xmlns="http://www.w3.org/2000/svg" height="24" width="24"><path d="M3.775 17.05v-.7h11.7v.7Zm15.95-.95-4.1-4.1 4.1-4.1.5.5-3.6 3.6 3.6 3.6Zm-15.95-3.75v-.7h8.7v.7Zm0-4.7v-.7h11.7v.7Z"/></svg>
